X:1
T:Sweets of May
M:6/8
L:1/8
K:G
d2c|BcB ABA|G2G G2A|B2B GAB|c3 d2c|
BcB ABA|G2G G2B|d2 d cBA|1 G3:|2G3 G3|
|:A2 A A2G|E2F G3|A2A c2d|e2d c2B|
A2 A A2G|E2F G3|A2A c2 B|A3 A3:|
|:d3 d3|D3 D3|c3 c3|D3 DEF|
G2G G2A|B2B B2c|ded cBA|G3 G3:||
%%newpage
%% *******************************************
